libs/ui/packages/crypto-icons/src/svg/CLOAK.svg

<svg width="24" height="24" viewBox="0 0 24 24" fill="none">
<path d="M12.0023 3.75C16.5525 3.7575 20.2515 7.4595 20.25 12.0023C20.2485 16.5503 16.5465 20.25 11.997 20.25H11.9895C7.4445 20.2455 3.74775 16.5398 3.75 11.9895C3.75225 7.4475 7.455 3.75 12.0023 3.75ZM12 4.8135C8.04225 4.8135 4.821 8.037 4.8195 11.9985C4.81875 15.9555 8.0355 19.1775 11.991 19.1805C15.9533 19.1805 19.1798 15.9585 19.1828 11.9985C19.1856 11.0551 19.0011 10.1204 18.6399 9.24883C18.2788 8.37723 17.7482 7.586 17.079 6.921C16.4141 6.25135 15.623 5.72027 14.7514 5.35852C13.8798 4.99676 12.9452 4.81151 12.0015 4.8135H12ZM15.546 11.2628C15.8003 12.552 15.4733 13.635 14.547 14.5755L14.4195 14.7037L14.2575 14.6243C14.1678 14.5804 14.0768 14.5394 13.9845 14.5012L13.6178 14.3483L13.9133 14.0828C14.49 13.5653 14.7968 12.8895 14.826 12.075C14.856 11.2605 14.5673 10.5503 13.9688 9.9645C13.4442 9.44982 12.7379 9.16258 12.003 9.165C11.6013 9.16469 11.2042 9.2501 10.8382 9.41552C10.4722 9.58094 10.1457 9.82256 9.8805 10.1242C9.282 10.8067 9.05325 11.6377 9.2205 12.5265C9.32389 13.1145 9.61741 13.6522 10.056 14.0573L10.3463 14.3265L9.9795 14.4742C9.888 14.511 9.792 14.5507 9.68925 14.5942L9.53175 14.6603L9.41175 14.538C8.7945 13.902 8.46 13.17 8.39025 12.3C8.2425 10.4662 9.43125 8.85075 11.2178 8.45925C11.4813 8.40093 11.7503 8.37126 12.0203 8.37075C12.8514 8.37155 13.6567 8.66004 14.2992 9.18722C14.9418 9.71441 15.3821 10.4478 15.5452 11.2628H15.546ZM7.47975 15.9802C6.37275 14.7457 5.475 12.5557 6.2775 10.1122C6.67406 8.9084 7.44025 7.8603 8.467 7.11713C9.49376 6.37396 10.7288 5.97359 11.9963 5.973C13.253 5.97154 14.4787 6.36336 15.5016 7.09355C16.5244 7.82374 17.2931 8.85569 17.7 10.0447C18.4095 12.1237 17.916 14.4878 16.4438 16.0673L16.2563 16.2675L15.5835 15.516L15.732 15.3488C16.653 14.3115 17.0805 13.0815 17.0033 11.694C16.9313 10.4265 16.4273 9.3225 15.5048 8.4135C14.5732 7.49215 13.3147 6.97734 12.0045 6.98175C10.8011 6.98227 9.63777 7.41475 8.72625 8.2005C8.01998 8.80311 7.49778 9.59252 7.2195 10.4782C6.93676 11.3587 6.90559 12.3006 7.1295 13.1978C7.31576 13.966 7.68355 14.6785 8.202 15.2753L8.349 15.4455L7.662 16.185L7.47975 15.9802Z" fill="#FF3A00"/>
</svg>

<svg width="24" height="24" viewBox="0 0 24 24" fill="none"><path fill="#ff3a00" d="M12.002 3.75c4.55.007 8.25 3.71 8.248 8.252-.002 4.548-3.703 8.248-8.253 8.248h-.008c-4.545-.005-8.241-3.71-8.239-8.26.002-4.542 3.705-8.24 8.252-8.24M12 4.814c-3.958 0-7.179 3.223-7.18 7.185-.001 3.957 3.216 7.178 7.171 7.181 3.962 0 7.189-3.221 7.192-7.181a7.13 7.13 0 0 0-2.104-5.078 7.13 7.13 0 0 0-5.078-2.107zm3.546 6.449c.254 1.289-.073 2.372-.999 3.313l-.128.128-.162-.08a5 5 0 0 0-.272-.123l-.367-.153.295-.265c.577-.518.884-1.194.913-2.008s-.259-1.525-.857-2.11a2.823 2.823 0 0 0-4.088.16 2.76 2.76 0 0 0-.66 2.402c.103.588.396 1.125.835 1.53l.29.27-.367.147-.29.12-.157.066-.12-.122A3.5 3.5 0 0 1 8.39 12.3c-.148-1.834 1.041-3.45 2.828-3.84q.396-.09.802-.09a3.6 3.6 0 0 1 3.525 2.893zM7.48 15.98c-1.107-1.234-2.005-3.424-1.203-5.868a6.024 6.024 0 0 1 11.423-.067c.71 2.079.216 4.443-1.256 6.022l-.188.2-.672-.751.148-.167c.921-1.037 1.349-2.267 1.271-3.655-.072-1.267-.576-2.372-1.498-3.28a4.95 4.95 0 0 0-3.5-1.432A5.02 5.02 0 0 0 8.726 8.2a4.94 4.94 0 0 0-1.507 2.278 4.96 4.96 0 0 0-.09 2.72 4.96 4.96 0 0 0 1.073 2.077l.147.17-.687.74z"/></svg>
